X: 2256
Q: "Irish Jig."
M: 6/8
L: 1/8
K: G
(ud/c/) |\
vB2vG uA2uE | G2E D2G | A3 A3 | A3- A2 (ud/c/) |\
vB2vG uA2uE | G2E DEF | G3 G3 | G3- G2 :|
|: uA |\
vB2vc ud2ud | e2f g2e | d2B A2G | A3- A2 (d/c/) |\


